X:1
T:James Gibb editions
T:Consigned to dust - Battishill
T:#
%%score [ 1 2 3 ]
L:1/8
Q:1/4=160
M:3/2
K:Eb
V:1 treble nm="Alto" snm="A"
V:2 treble-8 nm="Tenor" snm="T"
V:3 bass nm="Bass" snm="B"
V:1
"^Consigned to dust""^Jonathan Battishill\n(1738-1801)" E,4 | B,8 E4 | (E4 D4) E4 | (F4 G4) A4 | %4
w: Con-|signed to|dust * be-|neath * this|
 (A4 G4) F4 | E8 E4 | E4 B,8- |[M:3/2] B,4 A,4 G,4 | (G,4 F,4) z4 | B,4 B,4 E4 | (E4 D4) E4 | %11
w: stone * In|man- hood's|prime is|* Da- mon|laid; *|Joy- less he|lived, * but|
 (F4 G4) A4 | (A4 G4) z4 | E4 E4 E4 | (E6 F2) G4 | (C3 D/E/) (G,4 F,4) | E,12 | G6 F2 E4 | %18
w: died * un-|known, *|In bleak mis-|for\- * tune's|bar\- * * ren *|shade.|Loved by the|
 (E4 D4) E4 | (C4 A4) F4 | G8 F4 | E8 D4 | F8 E4 | (D4 C4) (E2 D2) | %24
w: muse, * but|loved * in|vain, 'Twas|beau- ty|drew his|ru\- * in *|
 (C4[Q:1/4=100] !fermata!=B,4)[Q:1/4=160] D4 | D8 E4 | (F4 E4) D4 | E4 F8 | G8 E4 | C8 (E2 D2) | %30
w: on; * He|saw young|Da\- * phne|on the|plain; He|loved, be\- *|
 =B,8 C4 | A,4 (G,6 F,2) | E,12- | E,4 E8 | E8 G4 | (G4 F4) E4 | (F4 G4) A4 | (A4 G4) B,4 | %38
w: lieved, and|was un\- *|done.|* Be-|neath this|stone * the|youth * is|laid, * O|
 (E3 F G3 A) B4 | E8 F4 | B,8{CD} E4 | (E4 D4) B,4 | G8 F4 | (E4 F4) G4 | F8 (E4{D | %45
w: greet * * * his|a- shes|with *|tear; * May|heav'n with|bles\- * sings|crown his|
E)} (E2 D2 E4) F4 | (B,4 C4) D4 | E8 (E4- | E4 D4) C4 | (E4 D8) | z4 B,4 (G4- | G4 F2 E2) (D2 C2) | %52
w: shade, * * his|shade, * may|heav'n crown|* * his|shade, *|And grant|* * * that *|
 B,4 E8 | (E3 F) (E4 D4) | E12 ||[M:4/4]"^adagio"[Q:1/4=100] E8 | (G,4 TF,3) E, | E,8 |] %58
w: peace he|wan\- * ted *|here,|he|wan\- * ted|here.|
V:2
 z4 | z3 G B4 G4 | A8 B4 | (c4 e4) d4 | e8 z4 | e4 d4 c4 | B8 G4- |[M:3/2][K:treble-8] G4 F4 E4 | %8
w: |Con- signed to|dust be|neath * this|stone|In man- hood's|prime is|* Da- mon|
 (E4 D4) z4 | B4 A4 G4 | (G4 F4) B4 | (c4 e4) d4 | e8 B4 | (_d4 c4) B4 | (c4 B4) e4 | E8 D4 | E12 | %17
w: laid; *|Joy- less he|lived, * but|died * un-|known, In|bleak * mis-|for\- * tune's|bar- ren|shade.|
 G4 G4 c4 | (c4 =B4) z4 | e4 e4 d4 | e4 G8 | (c2 d2 e2 f2) g4 | c8 B4 | (A4 G4) A4 | %24
w: Loved by the|muse, *|but loved in|vain, 'Twas|beau\- * * * ty|drew his|ru\- * in|
 !fermata!G8 =B4 | =B8 c4 | (d4 c4) =B4 | c4 d8 | e4 e4 g4- | g4 c4 f4- | f8 e4 | d4 (c4 =B4) | %32
w: on; He|saw young|Da\- * phne|on the|plain; He loved,|* be- lieved,|* and|was un\- *|
 c12 | z4 c8 | B4 B4 (e4- | e4 d4) B4 | (c4 e4) d4 | e8 z4 | g4 g4 f4 | (e4 d2 c2) (B2 A2) | %40
w: done.|Be-|neath this stone|* * the|youth * is|laid,|O greet his|a\- * * shes *|
 (G4 F4) E4 | B8 z4 | z4 z4 G4 | c8 B4 | (A4 B4) c4 | F8 F4 | B8 (B4- | B4 A4) G4 | A12- | A12 | %50
w: with * a|tear;|May|heav'n with|bles\- * sings|crown his|shade, crown|* * his|shade,||
 z4 z4 (G3 e) | c4 (F2 G2) (A4- | A4 G4) F4 | (G3 A) (G4 F4) | E12 ||[M:4/4] (c6 e2) | (e4 Td3) e | %57
w: And *|grant that * peace|* * he|wan\- * ted *|here,|he *|wan\- * ted|
 e8 |] %58
w: here.|
V:3
 z4 | z3 E, G,4 E,4 | F,8 G,4 | A,4 B,8 | E8 D4 | (C4 B,4) A,4 | G,8 E,4 |[M:3/2] G,,4 (TA,,8{G,, | %8
w: |Con- signed to|dust be-|neath this|stone In|man\- * hood's|prime is|Da- mon|
A,,)} B,,8 z4 | G,4 F,4 E,4 | (B,,4 A,,4) G,,4 | A,,4 B,,8 | E,4 E,8 | G,,8 G,4 | %14
w: laid;|Joy- less he|lived, * but|died un-|known, In|bleak mis-|
 (A,4 G,3 F,) E,4 | A,,4 B,,8 | E,12 | E,6 D,2 C,4 | G,8 z4 | A,4 F,4 B,4 | E8 D4 | C8 B,4 | %22
w: for\- * * tune's|bar- ren|shade.|Loved by the|muse,|but loved in|vain, 'Twas|beau- ty|
 A,8 G,4 | (F,4 E,4) F,4 | !fermata!G,8 G,4 | F,8 E,4 | D,4 G,8 | C4 B,8 | E8 E,4 | A,8 F,4 | %30
w: drew his|ru\- * in|on; He|saw young|Da- phne|on the|plain; He|loved, be-|
 G,8 C,4 | F,4 G,8 | C,12 | z4 A,,8 | G,,8 E,,4 | (B,,4 A,,4) G,,4 | A,,4 B,,8 | E,8 z4 | %38
w: lieved, and|was un-|done.|Be-|neath this|stone * the|youth is|laid,|
 E4 E4 D4 | (C4 B,2 A,2) (G,2 F,2) | (E,4 D,4) C,4 | B,,8 z4 | z12 | z12 | z4 z4 F,4 | B,8 A,4 | %46
w: O greet his|a\- * * shes *|with * a|tear;|||May|heav'n with|
 (G,4 A,4) B,4 | C,8 (C,4- | C,4 B,,4) A,,4 | B,,12 | z4 z4 E,4 | A,8 F,4 | (D,4 E,4) A,,4 | %53
w: bles\- * sings|crown, crown|* * his|shade,|And|grant that|peace * he|
 B,,8 B,,4 | C,12 ||[M:4/4] A,,8 | B,,6"^©www.notAmos.co.uk" B,,2 | E,8 |] %58
w: wan- ted|here,|he|wan- ted|here.|

